icons/1_Primary/Friendica.svg

<svg width="1024" height="1024" fill="none" xmlns="http://www.w3.org/2000/svg"><g clip-path="url(#a)"><path d="M512 1024c282.77 0 512-229.23 512-512S794.77 0 512 0 0 229.23 0 512s229.23 512 512 512Z" fill="#F9DE81"/><path d="M281.2 363.1v297.8c0 46.2 37.2 83.7 83.1 83.7h295.4c45.9 0 83.1-37.6 83.1-83.7V363.1c0-46.2-37.2-83.7-83.1-83.7H364.3c-45.9-.1-83.1 37.5-83.1 83.7Zm378.5-65.2c35.9 0 64.6 28.9 64.6 65.2v297.8c0 36.3-28.7 65.2-64.6 65.2H438.2V614.4h147.7l-.4-111.4-147.3.8v-94.2h147.7V297.9h73.8Z" fill="#fff"/></g><defs><clipPath id="a"><path fill="#fff" d="M0 0h1024v1024H0z"/></clipPath></defs></svg>

<svg width="1024" height="1024" viewBox="0 0 1024 1024" fill="none" xmlns="http://www.w3.org/2000/svg">
<g clip-path="url(#clip0_2_2235)">
<path d="M512 1024C794.77 1024 1024 794.77 1024 512C1024 229.23 794.77 0 512 0C229.23 0 0 229.23 0 512C0 794.77 229.23 1024 512 1024Z" fill="#F9DE81"/>
<path d="M281.2 363.1V660.9C281.2 707.1 318.4 744.6 364.3 744.6H659.7C705.6 744.6 742.8 707 742.8 660.9V363.1C742.8 316.9 705.6 279.4 659.7 279.4H364.3C318.4 279.3 281.2 316.9 281.2 363.1ZM659.7 297.9C695.6 297.9 724.3 326.8 724.3 363.1V660.9C724.3 697.2 695.6 726.1 659.7 726.1H438.2V614.4H585.9L585.5 503L438.2 503.8V409.6H585.9V297.9H659.7Z" fill="white"/>
</g>
<defs>
<clipPath id="clip0_2_2235">
<rect width="1024" height="1024" fill="white"/>
</clipPath>
</defs>
</svg>
